X: 17770
T: Honey Locust, The
R: waltz
M: 3/4
K: Gmajor
|:"G"G2 ED GA|AB d2 (3BAG|"C"Bc BG EG|"C"E2 "D"D3 F|
"Em" G2 ED GA|"G"Bd AB GE|"C"Bc BG ED|"D"A2 "G"G3 F:|
"C"DE ED B,A,|"G"G,2 AG (3ABd|"C"e2 ed eg|"D"d3 B AG|
"C"cB AG "G"BG|"C"DE ED FG|"D"A2 AG BG|"C"DE ED B,A,|"G"G,2 AG (3ABd|
"C"e2 ed eg|"D"d3 B AG|"C"DE2 c BG|"G"D3 B AG|"C"(3EFG "D"AG BG||

